app/images/participant-modal/3-big.svg

<svg width="216" height="280" viewBox="0 0 216 280" fill="none" xmlns="http://www.w3.org/2000/svg">
<g opacity="0.3" filter="url(#filter0_f)">
<path d="M82.1543 119.705H105.445C123.902 119.705 133.131 110.672 133.131 92.6055C133.131 85.5742 130.934 79.8613 126.539 75.4668C122.145 70.9746 115.943 68.7285 107.936 68.7285C101.393 68.7285 95.6797 70.6328 90.7969 74.4414C86.0117 78.25 83.6191 82.9863 83.6191 88.6504H34.2539C34.2539 77.4199 37.3789 67.4102 43.6289 58.6211C49.8789 49.832 58.5215 42.9961 69.5566 38.1133C80.6895 33.1328 92.8965 30.6426 106.178 30.6426C129.908 30.6426 148.561 36.0625 162.135 46.9023C175.709 57.7422 182.496 72.6348 182.496 91.5801C182.496 100.76 179.664 109.451 174 117.654C168.434 125.76 160.279 132.352 149.537 137.43C160.865 141.531 169.752 147.781 176.197 156.18C182.643 164.48 185.865 174.783 185.865 187.088C185.865 206.131 178.541 221.365 163.893 232.791C149.244 244.217 130.006 249.93 106.178 249.93C92.2129 249.93 79.2246 247.293 67.2129 242.02C55.2988 236.648 46.2656 229.275 40.1133 219.9C33.9609 210.428 30.8848 199.686 30.8848 187.674H80.543C80.543 194.217 83.1797 199.881 88.4531 204.666C93.7266 209.451 100.221 211.844 107.936 211.844C116.627 211.844 123.561 209.451 128.736 204.666C133.912 199.783 136.5 193.582 136.5 186.062C136.5 175.32 133.814 167.703 128.443 163.211C123.072 158.719 115.65 156.473 106.178 156.473H82.1543V119.705Z" fill="#5160E0"/>
</g>
<defs>
<filter id="filter0_f" x="0.884766" y="0.642578" width="214.98" height="279.287" filterUnits="userSpaceOnUse" color-interpolation-filters="sRGB">
<feFlood flood-opacity="0" result="BackgroundImageFix"/>
<feBlend mode="normal" in="SourceGraphic" in2="BackgroundImageFix" result="shape"/>
<feGaussianBlur stdDeviation="15" result="effect1_foregroundBlur"/>
</filter>
</defs>
</svg>

<svg width="216" height="280" fill="none" xmlns="http://www.w3.org/2000/svg"><g opacity=".3" filter="url(#filter0_f)"><path d="M82.154 119.705h23.291c18.457 0 27.686-9.033 27.686-27.1 0-7.03-2.197-12.744-6.592-17.138-4.394-4.492-10.596-6.739-18.603-6.739-6.543 0-12.256 1.905-17.14 5.713-4.784 3.809-7.177 8.545-7.177 14.21H34.254c0-11.231 3.125-21.24 9.375-30.03 6.25-8.789 14.893-15.625 25.928-20.508 11.132-4.98 23.34-7.47 36.621-7.47 23.73 0 42.383 5.42 55.957 16.26 13.574 10.84 20.361 25.732 20.361 44.677 0 9.18-2.832 17.871-8.496 26.074-5.566 8.106-13.721 14.698-24.463 19.776 11.328 4.101 20.215 10.351 26.66 18.75 6.446 8.3 9.668 18.603 9.668 30.908 0 19.043-7.324 34.277-21.972 45.703-14.649 11.426-33.887 17.139-57.715 17.139-13.965 0-26.953-2.637-38.965-7.91-11.914-5.372-20.947-12.745-27.1-22.12-6.152-9.472-9.228-20.214-9.228-32.226h49.658c0 6.543 2.637 12.207 7.91 16.992 5.274 4.785 11.768 7.178 19.483 7.178 8.691 0 15.625-2.393 20.8-7.178 5.176-4.883 7.764-11.084 7.764-18.604 0-10.742-2.686-18.359-8.057-22.851-5.371-4.492-12.793-6.738-22.265-6.738H82.154v-36.768z" fill="#5160E0"/></g><defs><filter id="filter0_f" x=".885" y=".643" width="214.98" height="279.287" filterUnits="userSpaceOnUse" color-interpolation-filters="sRGB"><feFlood flood-opacity="0" result="BackgroundImageFix"/><feBlend in="SourceGraphic" in2="BackgroundImageFix" result="shape"/><feGaussianBlur stdDeviation="15" result="effect1_foregroundBlur"/></filter></defs></svg>
